X: 2053
T: Ask My Father
R: slide
M: 12/8
K: Gmajor
A2G|F2D D3 A2G F2D|A3 B2G ABA A2G|
F2D D3 A2G F2D|G2B A2F G3 A2G|
F2D D3 A2G F2D|A3 B2G ABA A2G|
F2D D3 A2G F2D|G2B A2F G3G2g||
f2d d2e f2d cAG|A3 B2G A3 A2g|
f2d d2e f2d cAF|G2B A2F G3G2 g|
f2d d2e f2d cAG|A3 B2G A3 A2g|
f2d d2e f2g a2g|f2d c2A G2B A2G||

